apps/www/public/images/logos/publicity/github.svg

<svg width="139" height="62" viewBox="0 0 139 62" fill="none" xmlns="http://www.w3.org/2000/svg">
<path d="M82.549 39.079H82.5096C82.5293 39.079 82.5293 39.0987 82.549 39.0987H82.5688L82.549 39.079ZM82.549 39.0987C82.3913 39.0987 81.9772 39.1776 81.5433 39.1776C80.1827 39.1776 79.7094 38.5465 79.7094 37.7183V32.2362H82.4899C82.6476 32.2362 82.766 32.0982 82.766 31.901V28.9233C82.766 28.7655 82.6279 28.6275 82.4899 28.6275H79.7094V24.9202C79.7094 24.7821 79.6108 24.7032 79.453 24.7032H75.6668C75.5091 24.7032 75.4302 24.8018 75.4302 24.9202V28.7261C75.4302 28.7261 73.5174 29.1994 73.3991 29.2191C73.261 29.2585 73.1821 29.3768 73.1821 29.5149V31.901C73.1821 32.0982 73.3202 32.2362 73.4779 32.2362H75.4105V37.9944C75.4105 42.2736 78.3882 42.7074 80.4193 42.7074C81.3461 42.7074 82.4702 42.4116 82.6476 42.313C82.7462 42.2736 82.8054 42.1553 82.8054 42.0369V39.4142C82.8054 39.2564 82.7068 39.1381 82.549 39.0987ZM124.079 35.2533C124.079 32.0784 122.797 31.6643 121.456 31.8024C120.411 31.8615 119.563 32.394 119.563 32.394V38.5663C119.563 38.5663 120.411 39.1578 121.693 39.1973C123.487 39.2367 124.079 38.586 124.079 35.2533ZM128.338 34.9773C128.338 40.9918 126.386 42.7074 122.994 42.7074C120.115 42.7074 118.577 41.2481 118.577 41.2481C118.577 41.2481 118.518 42.0567 118.419 42.1553C118.36 42.2539 118.281 42.2933 118.163 42.2933H115.58C115.402 42.2933 115.244 42.1553 115.244 41.9975L115.284 22.5341C115.284 22.3763 115.422 22.2383 115.58 22.2383H119.307C119.464 22.2383 119.603 22.3763 119.603 22.5341V29.1402C119.603 29.1402 121.042 28.2134 123.152 28.2134L123.132 28.1739C125.223 28.1739 128.338 28.9627 128.338 34.9773ZM113.056 28.6472H109.368C109.171 28.6472 109.072 28.7852 109.072 28.9824V38.5071C109.072 38.5071 108.106 39.1776 106.785 39.1776C105.483 39.1776 105.089 38.586 105.089 37.2648V28.943C105.089 28.7852 104.951 28.6472 104.793 28.6472H101.046C100.888 28.6472 100.75 28.7852 100.75 28.943V37.9155C100.75 41.7609 102.9 42.7271 105.858 42.7271C108.303 42.7271 110.275 41.3862 110.275 41.3862C110.275 41.3862 110.374 42.0764 110.413 42.175C110.453 42.2539 110.571 42.3327 110.689 42.3327H113.036C113.233 42.3327 113.332 42.1947 113.332 42.0369L113.371 28.943C113.391 28.7852 113.233 28.6472 113.056 28.6472ZM71.5257 28.6275H67.7986C67.6409 28.6275 67.5028 28.7852 67.5028 28.9824V41.8397C67.5028 42.1947 67.7395 42.313 68.0353 42.313H71.4074C71.7623 42.313 71.8412 42.1553 71.8412 41.8397V28.9233C71.8215 28.7655 71.6834 28.6275 71.5257 28.6275ZM69.672 22.6918C68.3311 22.6918 67.2465 23.7567 67.2465 25.1174C67.2465 26.4583 68.3114 27.5429 69.672 27.5429C70.9932 27.5429 72.0581 26.478 72.0581 25.1174C72.0581 23.7764 70.9932 22.6918 69.672 22.6918ZM98.5812 22.258H94.8739C94.7161 22.258 94.5781 22.396 94.5781 22.5538V29.7121H88.7805V22.5538C88.7805 22.396 88.6425 22.258 88.4847 22.258H84.7577C84.5999 22.258 84.4619 22.396 84.4619 22.5538V42.0172C84.4619 42.175 84.6196 42.313 84.7577 42.313H88.4847C88.6425 42.313 88.7805 42.175 88.7805 42.0172V33.6955H94.5781L94.5387 42.0172C94.5387 42.175 94.6767 42.313 94.8345 42.313H98.5615C98.7193 42.313 98.8573 42.175 98.8573 42.0172V22.5538C98.877 22.396 98.739 22.258 98.5812 22.258ZM65.5112 30.8755V40.9326C65.5112 40.9918 65.4914 41.1298 65.4126 41.1495C65.4126 41.1495 63.2237 42.7074 59.6149 42.7074C55.2569 42.7074 50.0706 41.3467 50.0706 32.3348C50.0706 23.3229 54.5864 21.4692 59.0036 21.4889C62.8293 21.4889 64.3674 22.3566 64.604 22.5143C64.6632 22.6129 64.7026 22.6721 64.7026 22.751L63.9927 25.8864C63.9927 26.0442 63.835 26.2414 63.6378 26.1822C63.0067 25.985 62.0602 25.6104 59.8318 25.6104C57.2486 25.6104 54.4878 26.34 54.4878 32.1573C54.4878 37.9549 57.1105 38.6451 59.0036 38.6451C60.6206 38.6451 61.1925 38.4479 61.1925 38.4479V34.4251H58.6092C58.412 34.4251 58.274 34.2871 58.274 34.1293V30.8953C58.274 30.7375 58.412 30.5995 58.6092 30.5995H65.1759C65.3731 30.5797 65.5112 30.7178 65.5112 30.8755Z" fill="#7E7E7E"/>
<path fill-rule="evenodd" clip-rule="evenodd" d="M25.0265 16.5C16.7244 16.5 10 23.2244 10 31.5265C10 38.172 14.2989 43.7922 20.274 45.7839C21.0234 45.9022 21.3192 45.4684 21.3192 45.074C21.3192 44.719 21.2994 43.5358 21.2994 42.2738C17.533 42.964 16.547 41.3469 16.2512 40.5187C16.0737 40.0849 15.3441 38.7439 14.713 38.389C14.1806 38.1129 13.4312 37.403 14.6933 37.3833C15.8765 37.3635 16.7244 38.4678 17.0005 38.9214C18.3612 41.1892 20.5106 40.5581 21.3783 40.1637C21.5164 39.1975 21.9108 38.527 22.3446 38.1523C19.0119 37.7777 15.5018 36.4761 15.5018 30.7377C15.5018 29.1009 16.0934 27.7403 17.04 26.6951C16.8822 26.3205 16.3695 24.7823 17.1977 22.7117C17.1977 22.7117 18.4598 22.3173 21.3389 24.2499C22.5418 23.9146 23.8236 23.7372 25.0856 23.7372C26.3674 23.7372 27.6295 23.9146 28.8324 24.2499C31.7115 22.2976 32.9538 22.7117 32.9538 22.7117C33.7821 24.7823 33.2496 26.3205 33.1116 26.6951C34.0779 27.7403 34.6497 29.0812 34.6497 30.7377C34.6497 36.4959 31.1396 37.7777 27.7872 38.1523C28.3394 38.6256 28.8127 39.513 28.8127 40.9328C28.8127 42.9442 28.793 44.5613 28.793 45.0543C28.793 45.4486 29.069 45.9219 29.8184 45.7642C35.9315 43.6936 40.053 37.9551 40.053 31.5068C40.053 23.2244 33.3285 16.5 25.0265 16.5Z" fill="#7E7E7E"/>
</svg>

<svg xmlns="http://www.w3.org/2000/svg" width="139" height="62" fill="none" viewBox="0 0 139 62"><path fill="#7e7e7e" d="M82.549 39.079h-.04c.02 0 .02.02.04.02h.02zm0 .02c-.158 0-.572.079-1.006.079-1.36 0-1.834-.631-1.834-1.46v-5.482h2.78c.159 0 .277-.138.277-.335v-2.978c0-.157-.138-.295-.276-.295h-2.78V24.92c0-.138-.1-.217-.257-.217h-3.786c-.158 0-.237.099-.237.217v3.806s-1.913.473-2.03.493a.296.296 0 0 0-.218.296V31.9c0 .197.138.335.296.335h1.933v5.758c0 4.28 2.977 4.713 5.008 4.713.927 0 2.051-.295 2.229-.394.098-.04.157-.158.157-.276v-2.623c0-.158-.098-.276-.256-.315m41.53-3.846c0-3.175-1.282-3.589-2.623-3.45-1.045.058-1.893.591-1.893.591v6.172s.848.592 2.13.631c1.794.04 2.386-.611 2.386-3.944m4.259-.276c0 6.015-1.952 7.73-5.344 7.73-2.879 0-4.417-1.459-4.417-1.459s-.059.809-.158.907c-.059.099-.138.138-.256.138h-2.583c-.178 0-.336-.138-.336-.295l.04-19.464c0-.158.138-.296.296-.296h3.727c.157 0 .296.138.296.296v6.606s1.439-.927 3.549-.927l-.02-.04c2.091 0 5.206.79 5.206 6.804m-15.282-6.33h-3.688c-.197 0-.296.138-.296.335v9.525s-.966.67-2.287.67c-1.302 0-1.696-.591-1.696-1.912v-8.322a.303.303 0 0 0-.296-.296h-3.747a.303.303 0 0 0-.296.296v8.973c0 3.845 2.15 4.811 5.108 4.811 2.445 0 4.417-1.34 4.417-1.34s.099.69.138.788c.04.079.158.158.276.158h2.347c.197 0 .296-.138.296-.296l.039-13.094c.02-.158-.138-.296-.315-.296m-41.53-.02h-3.727c-.158 0-.296.158-.296.355V41.84c0 .355.237.473.532.473h3.372c.355 0 .434-.158.434-.473V28.923c-.02-.157-.158-.295-.315-.295m-1.854-5.935a2.41 2.41 0 0 0-2.425 2.425 2.41 2.41 0 0 0 2.425 2.426c1.321 0 2.386-1.065 2.386-2.426 0-1.34-1.065-2.425-2.386-2.425m28.91-.434h-3.708a.303.303 0 0 0-.296.296v7.158h-5.797v-7.158a.303.303 0 0 0-.296-.296h-3.727a.303.303 0 0 0-.296.296v19.463c0 .158.158.296.296.296h3.727a.303.303 0 0 0 .296-.296v-8.321h5.797l-.04 8.321c0 .158.139.296.297.296h3.727a.303.303 0 0 0 .295-.296V22.554c.02-.158-.118-.296-.276-.296m-33.07 8.618v10.057c0 .059-.02.197-.1.217 0 0-2.188 1.557-5.797 1.557-4.358 0-9.544-1.36-9.544-10.372s4.515-10.866 8.933-10.846c3.825 0 5.363.868 5.6 1.025.06.099.099.158.099.237l-.71 3.135c0 .158-.158.355-.355.296-.631-.197-1.578-.572-3.806-.572-2.583 0-5.344.73-5.344 6.547 0 5.798 2.623 6.488 4.516 6.488 1.617 0 2.189-.197 2.189-.197v-4.023h-2.584c-.197 0-.335-.138-.335-.296v-3.234c0-.157.138-.296.335-.296h6.567c.197-.02.335.119.335.276"/><path fill="#7e7e7e" fill-rule="evenodd" d="M25.027 16.5C16.723 16.5 10 23.224 10 31.526c0 6.646 4.299 12.266 10.274 14.258.75.118 1.045-.316 1.045-.71 0-.355-.02-1.538-.02-2.8-3.766.69-4.752-.927-5.048-1.755-.177-.434-.907-1.775-1.538-2.13-.532-.276-1.282-.986-.02-1.006 1.184-.02 2.031 1.085 2.307 1.538 1.361 2.268 3.51 1.637 4.378 1.243.138-.967.533-1.637.967-2.012-3.333-.374-6.843-1.676-6.843-7.414 0-1.637.591-2.998 1.538-4.043-.158-.375-.67-1.913.158-3.983 0 0 1.262-.395 4.14 1.538a13.966 13.966 0 0 1 7.494 0c2.88-1.952 4.122-1.538 4.122-1.538.828 2.07.296 3.608.158 3.983.966 1.045 1.538 2.386 1.538 4.043 0 5.758-3.51 7.04-6.863 7.414.552.474 1.026 1.361 1.026 2.78 0 2.012-.02 3.63-.02 4.122 0 .395.276.868 1.025.71a15.065 15.065 0 0 0 10.235-14.257c0-8.283-6.724-15.007-15.026-15.007" clip-rule="evenodd"/></svg>
